packages/internal_wiki/src/data/svgs/DE455.svg

<?xml version="1.0" encoding="UTF-8" standalone="no"?>
<svg
   xmlns:dc="http://purl.org/dc/elements/1.1/"
   xmlns:cc="http://creativecommons.org/ns#"
   xmlns:rdf="http://www.w3.org/1999/02/22-rdf-syntax-ns#"
   xmlns:svg="http://www.w3.org/2000/svg"
   xmlns="http://www.w3.org/2000/svg"
   id="svg3767"
   version="1.1"
   xml:space="preserve"
   width="670.19562"
   height="1005.2602"
   viewBox="0 0 670.19562 1005.2602"><metadata
     id="metadata3773"><rdf:RDF><cc:Work
         rdf:about=""><dc:format>image/svg+xml</dc:format><dc:type
           rdf:resource="http://purl.org/dc/dcmitype/StillImage" /><dc:title></dc:title></cc:Work></rdf:RDF></metadata><defs
     id="defs3771"><clipPath
       clipPathUnits="userSpaceOnUse"
       id="clipPath3787"><path
         d="M 0,1 536,1 536,805 0,805 0,1 Z"
         id="path3789" /></clipPath></defs><g
     id="g3781"
     transform="matrix(1.25,0,0,-1.25,0,1006.25)"><g
       id="g3783"><g
         id="g3785"
         clip-path="url(#clipPath3787)"><g
           id="g3791"><path
             d="m 35.75,804.645 c -19.488,0 -35.344,-15.852 -35.344,-35.34 l 0,-732.782 C 0.406,17.035 16.262,1.184 35.75,1.184 l 464.691,0 c 19.489,0 35.344,15.851 35.344,35.339 l 0,732.782 c 0,19.488 -15.855,35.34 -35.344,35.34"
             style="fill:#f0c900;fill-opacity:1;fill-rule:nonzero;stroke:none"
             id="path3793" /></g></g></g></g><path
     d="m 44.6875,11.10895 c -18.51125,0 -33.515,15.00375 -33.515,33.51 l 0,915.97625 c 0,18.50625 15.00375,33.49125 33.515,33.49125 l 580.86375,0 c 18.51125,0 33.49625,-14.985 33.49625,-33.49125 l 0,-915.97625 c 0,-18.50625 -14.985,-33.51 -33.49625,-33.51 l -580.86375,0 z m 0,16.7575 580.86375,0 c 9.24375,0 16.75875,7.51 16.75875,16.7525 l 0,915.97625 c 0,9.24375 -7.515,16.75875 -16.75875,16.75875 l -580.86375,0 c -9.2625,0 -16.7575,-7.515 -16.7575,-16.75875 l 0,-915.97625 c 0,-9.2425 7.495,-16.7525 16.7575,-16.7525 z"
     style="fill:#000000;fill-opacity:1;fill-rule:nonzero;stroke:none"
     id="path3795" /><path
     d="m 265.2975,167.4902 29.67875,0 0,127.4075 c 0,22.1925 17.9775,40.14625 40.14625,40.14625 22.1625,0 40.14125,-17.95375 40.14125,-40.14625 l 0,-127.4075 29.65875,0 0,127.4075 c 0,38.56875 -31.255,69.82375 -69.8,69.82375 -38.57,0 -69.825,-31.255 -69.825,-69.82375"
     style="fill:#000000;fill-opacity:1;fill-rule:nonzero;stroke:none"
     id="path3797" /><path
     d="m 335.1075,524.94145 100.54625,100.54625 0,55.855 -78.2025,-78.19875 0,301.5925 -44.66375,0 0,-301.5925 -78.2025,78.19875 0,-55.855"
     style="fill:#000000;fill-opacity:1;fill-rule:nonzero;stroke:none"
     id="path3799" /></svg>

<svg xmlns="http://www.w3.org/2000/svg" xml:space="preserve" viewBox="0 0 670.196 1005.26" role="img" aria-labelledby="title">
  <title id="title">Verkehrszeichen 455[…] - Umleitung</title>
  <defs>
    <clipPath id="a" clipPathUnits="userSpaceOnUse">
      <path d="M0 1h536v804H0z"/>
    </clipPath>
  </defs>
  <g clip-path="url(#a)" transform="matrix(1.25 0 0 -1.25 0 1006.25)">
    <path d="M35.75 804.645c-19.488 0-35.344-15.852-35.344-35.34V36.523c0-19.488 15.856-35.339 35.344-35.339h464.691c19.489 0 35.344 15.851 35.344 35.339v732.782c0 19.488-15.855 35.34-35.344 35.34" style="fill:#f0c900;fill-opacity:1;fill-rule:nonzero;stroke:none"/>
  </g>
  <path d="M44.688 11.109c-18.512 0-33.515 15.004-33.515 33.51v915.976c0 18.506 15.003 33.491 33.515 33.491H625.55c18.511 0 33.496-14.985 33.496-33.49V44.618c0-18.506-14.985-33.51-33.496-33.51zm0 16.757H625.55c9.244 0 16.759 7.51 16.759 16.753v915.976c0 9.244-7.515 16.759-16.759 16.759H44.688c-9.263 0-16.758-7.515-16.758-16.759V44.62c0-9.243 7.495-16.753 16.758-16.753" style="fill:#000;fill-opacity:1;fill-rule:nonzero;stroke:none"/>
  <path d="M265.298 167.49h29.678v127.408c0 22.192 17.978 40.146 40.146 40.146 22.163 0 40.142-17.954 40.142-40.146V167.49h29.659v127.408c0 38.568-31.255 69.823-69.8 69.823-38.57 0-69.825-31.255-69.825-69.823M335.108 524.941l100.546 100.547v55.855l-78.203-78.199v301.592h-44.664V603.144l-78.202 78.199v-55.855" style="fill:#000;fill-opacity:1;fill-rule:nonzero;stroke:none"/>
</svg>
